icons/TrianglesLeftDouble_filled.svg

<svg width="24" height="24" viewBox="0 0 24 24" fill="none" xmlns="http://www.w3.org/2000/svg">
<path fill-rule="evenodd" clip-rule="evenodd" d="M19.677,5.16114c0.8082,-0.7072 2.0731,-0.13322 2.0731,0.94072v11.79624c0,1.0739 -1.2649,1.6479 -2.0731,0.9407l-6.7407,-5.8981c-0.5692,-0.498 -0.5692,-1.3834 0,-1.8814zM8.67697,5.16115c0.80824,-0.7072 2.07313,-0.13322 2.07313,0.94072v11.79623c0,1.074 -1.2649,1.6479 -2.07313,0.9407l-6.7407,-5.8981c-0.56916,-0.498 -0.56916,-1.3834 0,-1.8814z" fill="#002B51"/>
</svg>

<svg width="24" height="24" viewBox="0 0 24 24" fill="none" xmlns="http://www.w3.org/2000/svg">
<path fill-rule="evenodd" clip-rule="evenodd" d="M19.677 5.16114C20.4852 4.45394 21.7501 5.02792 21.7501 6.10186V17.8981C21.7501 18.972 20.4852 19.546 19.677 18.8388L12.9363 12.9407C12.3671 12.4427 12.3671 11.5573 12.9363 11.0593L19.677 5.16114ZM8.67697 5.16115C9.48521 4.45395 10.7501 5.02793 10.7501 6.10187V17.8981C10.7501 18.9721 9.4852 19.546 8.67697 18.8388L1.93627 12.9407C1.36711 12.4427 1.36711 11.5573 1.93627 11.0593L8.67697 5.16115Z" fill="#002B51"/>
</svg>
